!!!!SEGMENT: pl-kk--kk-i-6--062_anonim--deo-gratias.krn
!!!cenid: 16xx:1058
!!!COM: Anonim
!!!COM-rismid: pe30004985
!!!CDT:
!!!CNT:
!!!OTL: Deo gratias
!!!PDT:
!!!AGN:
!!!SMS-siglum: PL-Kk
!!!SMS-shelfmark: Kk.I.6
!!!SMS-shelfwork: 062 W
!!!SMS-variant:
!!!SMS-altvar:
!!!NIFC-rismid: 1001136580
!!!URL-scan: http://repozytorium.nifc.pl/skany/pl-kk-nut--i-6
!!!ONB-nifc: UWAGA: C (skan 0088, s. 172), T (skan 0199, s. 203), B (skan 0312, s. 207) Sabbatho | de B.V. | Maria
**kern	**text	**kern	**text	**kern	**text
*part3	*part3	*part2	*part2	*part1	*part1
*staff3	*staff3	*staff2	*staff2	*staff1	*staff1
*Iempty	*	*Itenor	*	*Ivox	*
*I"Baſsus.	*	*I"Tenor.	*	*I"Cantus.	*
*I'B	*	*I'T	*	*I'S	*
*clefF4	*	*clefC4	*	*clefC4	*
*k[b-]	*	*k[b-]	*	*k[b-]	*
*g:	*	*g:	*	*g:	*
*M2/2	*	*M2/2	*	*M2/2	*
*met(C|) 	*	*met(C|) 	*	*met(C|) 	*
=1-	=1-	=1-	=1-	=1-	=1-
1D	De-	1A	De-	1D	De-
=2-	=2-	=2-	=2-	=2-	=2-
1BB-	-o	1B-	-o	0F	.
=3-	=3-	=3-	=3-	=3-	=3-
2BB-/	gra-	2B-\	gra-	.	.
2D/	-ti-	2A/	-ti-	.	.
=4-	=4-	=4-	=4-	=4-	=4-
*	*	*	*	*lig	*
2C/	-as	2c\	-as	1G	.
2BB-/	.	2G/	.	.	.
=5-	=5-	=5-	=5-	=5-	=5-
2AA/	.	2c\	.	1A	.
!	!	!LO:SIC:v:t=custos B-	!	!	!
2FF/	.	2A/	.	.	.
*	*	*	*	*Xlig	*
=6-	=6-	=6-	=6-	=6-	=6-
*	*	*	*ij	*lig	*
!LO:SIC:v:t=custos C	!	!LO:LB:g=original	!	!	!
1GG	.	2B-\	De-	1G	.
.	.	1G/	-o	.	.
!LO:LB:g=original	!	!	!	!	!
=7-	=7-	=7-	=7-	=7-	=7-
1C	.	.	.	1E	.
.	.	2G/	gra-	.	.
*	*	*	*	*Xlig	*
=8-	=8-	=8-	=8-	=8-	=8-
*	*	*	*	*lig	*
2FF/	.	1A	-ti-	1F	.
2F\	.	.	.	.	.
=9-	=9-	=9-	=9-	=9-	=9-
1G	.	1G	-as	1E	.
*	*	*	*	*Xlig	*
=10-	=10-	=10-	=10-	=10-	=10-
!	!	!	!	!LO:SIC:v:t=custos F	!
1F	.	2B-\	.	1D	-o
.	.	1A\	.	.	.
=11-	=11-	=11-	=11-	=11-	=11-
*	*	*	*	*lig	*
!	!	!	!	!LO:LB:g=original	!
2F\	.	.	.	1F	.
2FF/	.	2A/	.	.	.
=12-	=12-	=12-	=12-	=12-	=12-
1GG	.	1G	.	1D	.
*	*	*	*	*Xlig	*
=13-	=13-	=13-	=13-	=13-	=13-
1AA	.	1E	.	1C	.
=14-	=14-	=14-	=14-	=14-	=14-
*	*	*	*	*lig	*
1BB-	.	2D/	.	1D	gra-
.	.	2B-\	.	.	.
=15-	=15-	=15-	=15-	=15-	=15-
2FF/	.	2A/	.	1C	.
2AA/	.	2F/	.	.	.
*	*	*	*	*Xlig	*
=16-	=16-	=16-	=16-	=16-	=16-
!	!	!LO:SIC:v:t=custos C	!	!	!
1GG	.	1G	.	1D	.
=17-	=17-	=17-	=17-	=17-	=17-
*	*	*	*	*lig	*
!	!	!LO:LB:g=original	!	!	!
1FF	.	2C/	.	1F	.
.	.	1c\	De-	.	.
=18-	=18-	=18-	=18-	=18-	=18-
!LO:SIC:v:t=custos D	!	!	!	!	!
1C	.	.	.	1E	.
.	.	2c\	-o	.	.
*	*	*	*	*Xlig	*
=19-	=19-	=19-	=19-	=19-	=19-
*lig	*	*	*	*	*
!LO:LB:g=original	!	!	!	!	!
1D	.	1A	gra-	1F	.
=20-	=20-	=20-	=20-	=20-	=20-
*	*	*	*	*lig	*
1GG	.	1B-	.	1G	.
*Xlig	*	*	*	*	*
=21-	=21-	=21-	=21-	=21-	=21-
*lig	*	*	*	*	*
1C	.	1G	.	1E	.
*	*	*	*	*Xlig	*
=22-	=22-	=22-	=22-	=22-	=22-
1D	.	2F/	.	1F	.
.	.	2D/	.	.	.
*Xlig	*	*	*	*	*
=23-	=23-	=23-	=23-	=23-	=23-
*	*	*	*	*lig	*
1AA	.	1A	.	1E	-ti-
=24-	=24-	=24-	=24-	=24-	=24-
0D	.	0A	-ti-	1D	.
*	*	*	*	*Xlig	*
=25-	=25-	=25-	=25-	=25-	=25-
!	!	!	!	!LO:N:vis=0	!
.	.	.	.	00D;;	-as.
=26-	=26-	=26-	=26-	=26-	=26-
0GG	.	0B-X	.	.	.
=27-	=27-	=27-	=27-	=27-	=27-
.	.	.	.	.	.
=28-	=28-	=28-	=28-	=28-	=28-
!LO:N:vis=0	!	!LO:N:vis=0	!	!	!
1D;;	.	1A;;	-as	.	.
==	==	==	==	==	==
*-	*-	*-	*-	*-	*-
!!!system-decoration: [(s1,s2,s3)]
!!!RDF**kern: > = above
!!!RDF**kern: < = below
!!!AIN: 1 empty 1 tenor 1 vox
!!!ENC: Katarzyna Serwa
!!!END: 2021-10-28
!!!ENC: Andrzej Gręziak
!!!END: 2021-10-26
